svg/24/margin.svg

<svg width="24" height="24" viewBox="0 0 24 24" fill="currentColor" xmlns="http://www.w3.org/2000/svg"><path fill-rule="evenodd" clip-rule="evenodd" d="M5 3C3.89543 3 3 3.89543 3 5V19C3 20.1046 3.89543 21 5 21H19C20.1046 21 21 20.1046 21 19V5C21 3.89543 20.1046 3 19 3H5ZM19 4.5H17.5V6.5H19.5V5C19.5 4.72386 19.2761 4.5 19 4.5ZM19.5 8H17.5V16H19.5V8ZM16 6.5V4.5H8V6.5L16 6.5ZM8 8L16 8V16L8 16V8ZM6.5 6.5V4.5H5C4.72386 4.5 4.5 4.72386 4.5 5V6.5H6.5ZM4.5 8H6.5V16H4.5V8ZM8 17.5L16 17.5V19.5H8V17.5ZM19 19.5H17.5V17.5H19.5V19C19.5 19.2761 19.2761 19.5 19 19.5ZM4.5 17.5H6.5V19.5H5C4.72386 19.5 4.5 19.2761 4.5 19V17.5Z"/></svg>

<svg xmlns="http://www.w3.org/2000/svg" width="24" height="24" fill="currentColor" viewBox="0 0 24 24">
  <path fill-rule="evenodd" d="M5 3a2 2 0 0 0-2 2v14a2 2 0 0 0 2 2h14a2 2 0 0 0 2-2V5a2 2 0 0 0-2-2H5Zm14 1.5h-1.5v2h2V5a.5.5 0 0 0-.5-.5Zm.5 3.5h-2v8h2V8ZM16 6.5v-2H8v2h8ZM8 8h8v8H8V8ZM6.5 6.5v-2H5a.5.5 0 0 0-.5.5v1.5h2ZM4.5 8h2v8h-2V8ZM8 17.5h8v2H8v-2Zm11 2h-1.5v-2h2V19a.5.5 0 0 1-.5.5Zm-14.5-2h2v2H5a.5.5 0 0 1-.5-.5v-1.5Z" clip-rule="evenodd"/>
</svg>
